<?xml version="1.0" encoding="UTF-8"?>
<map version="1.10" tiledversion="1.10.2" orientation="orthogonal" renderorder="right-down" width="20" height="12" tilewidth="16" tileheight="16" infinite="0" nextlayerid="5" nextobjectid="14">
 <tileset firstgid="1" source="chirp_tiles.tsx"/>
 <layer id="1" name="ground" width="20" height="12">
  <data encoding="csv">
1,1,1,1,1,1,1,1,1,1,1,1,1,1,1,1,1,1,1,1,
1,1,1,1,1,1,1,1,1,1,1,1,1,1,1,1,1,1,1,1,
1,1,1,1,1,1,1,1,1,1,1,1,1,1,1,1,1,1,1,1,
1,1,1,1,1,1,1,1,1,1,1,1,1,1,1,1,1,1,1,1,
1,1,1,1,1,1,1,1,1,1,1,1,1,1,1,1,1,1,1,1,
1,1,1,1,1,1,1,1,1,1,1,1,1,1,1,1,1,1,1,1,
1,1,1,1,1,1,1,1,1,1,1,1,1,1,1,1,1,1,1,1,
1,1,1,1,1,1,1,1,1,1,1,1,1,1,1,1,1,1,1,1,
1,1,1,1,1,1,1,1,1,1,1,1,1,1,1,1,1,1,1,1,
1,1,1,1,1,1,1,1,1,1,1,1,1,1,1,1,1,1,1,1,
1,1,1,1,1,1,1,1,1,1,1,1,1,1,1,1,1,1,1,1,
1,1,1,1,1,1,1,1,1,1,1,1,1,1,1,1,1,1,1,1
</data>
 </layer>
 <layer id="2" name="collision" width="20" height="12">
  <data encoding="csv">
2,2,2,2,2,2,2,2,2,2,2,2,2,2,2,2,2,2,2,2,
2,0,0,0,0,0,0,0,0,0,2,0,0,0,0,0,0,0,0,2,
2,0,0,0,0,0,0,0,0,0,2,0,0,0,0,0,0,0,0,2,
2,0,0,0,0,0,0,0,0,0,2,0,0,0,0,0,0,0,0,2,
2,0,0,0,0,0,0,0,0,0,2,0,0,0,0,0,0,0,0,2,
2,0,0,0,0,0,0,0,0,0,2,0,0,0,0,0,0,0,0,2,
2,0,0,0,0,0,0,0,0,0,0,0,0,0,0,0,0,0,0,2,
2,0,0,0,0,0,0,0,0,0,2,0,0,0,0,0,0,0,0,2,
2,0,0,0,0,0,0,0,0,0,2,0,0,0,0,0,0,0,0,2,
2,0,0,0,0,0,0,0,0,0,2,0,0,0,0,0,0,0,0,2,
2,0,0,0,0,0,0,0,0,0,2,0,0,0,0,0,0,0,0,2,
2,2,2,2,2,2,2,2,2,2,2,2,2,2,2,2,2,2,2,2
</data>
 </layer>
 <objectgroup id="3" name="entities">
  <object id="1" name="player" x="32" y="32" width="16" height="16"/>
  <object id="2" name="door" x="160" y="96" width="16" height="16">
   <properties>
    <property name="clan" type="int" value="0"/>
    <property name="family" type="int" value="0"/>
    <property name="role" value="caller"/>
    <property name="is_blocker" type="bool" value="true"/>
    <property name="flee_route" value="flee_door"/>
   </properties>
  </object>
  <object id="3" name="quiet" x="64" y="128" width="16" height="16">
   <properties>
    <property name="clan" type="int" value="0"/>
    <property name="family" type="int" value="0"/>
    <property name="role" value="responder"/>
    <property name="is_blocker" type="bool" value="false"/>
    <property name="flee_route" value="flee_quiet"/>
   </properties>
  </object>
  <object id="4" name="tall" x="112" y="48" width="16" height="16">
   <properties>
    <property name="clan" type="int" value="1"/>
    <property name="family" type="int" value="0"/>
    <property name="role" value="caller"/>
    <property name="is_blocker" type="bool" value="false"/>
    <property name="flee_route" value="flee_tall"/>
   </properties>
  </object>
  <object id="5" name="short" x="32" y="144" width="16" height="16">
   <properties>
    <property name="clan" type="int" value="1"/>
    <property name="family" type="int" value="0"/>
    <property name="role" value="responder"/>
    <property name="is_blocker" type="bool" value="false"/>
    <property name="flee_route" value="flee_short"/>
   </properties>
  </object>
  <object id="6" name="far" x="224" y="48" width="16" height="16">
   <properties>
    <property name="clan" type="int" value="1"/>
    <property name="family" type="int" value="2"/>
    <property name="role" value="caller"/>
    <property name="is_blocker" type="bool" value="false"/>
    <property name="flee_route" value="flee_far"/>
   </properties>
  </object>
  <object id="7" name="near" x="272" y="128" width="16" height="16">
   <properties>
    <property name="clan" type="int" value="1"/>
    <property name="family" type="int" value="2"/>
    <property name="role" value="responder"/>
    <property name="is_blocker" type="bool" value="false"/>
    <property name="flee_route" value="flee_near"/>
   </properties>
  </object>
 </objectgroup>
 <objectgroup id="4" name="zones">
  <object id="8" name="flee_door" x="160" y="96">
   <polyline points="0,0 -16,0 -32,0"/>
  </object>
  <object id="9" name="flee_quiet" x="64" y="128">
   <polyline points="0,0 -16,0 -32,0"/>
  </object>
  <object id="10" name="flee_tall" x="112" y="48">
   <polyline points="0,0 -16,0 -32,0"/>
  </object>
  <object id="11" name="flee_short" x="32" y="144">
   <polyline points="0,0 16,0 32,0"/>
  </object>
  <object id="12" name="flee_far" x="224" y="48">
   <polyline points="0,0 16,0 32,0"/>
  </object>
  <object id="13" name="flee_near" x="272" y="128">
   <polyline points="0,0 -16,0 -32,0"/>
  </object>
 </objectgroup>
</map>
