<?xml version="1.0" encoding="UTF-8"?>
<map version="1.10" tiledversion="1.10.2" orientation="orthogonal" renderorder="right-down" width="22" height="12" tilewidth="16" tileheight="16" infinite="0" nextlayerid="5" nextobjectid="14">
 <tileset firstgid="1" source="chirp_tiles.tsx"/>
 <layer id="1" name="ground" width="22" height="12">
  <data encoding="csv">
1,1,1,1,1,1,1,1,1,1,1,1,1,1,1,1,1,1,1,1,1,1,
1,1,1,1,1,1,1,1,1,1,1,1,1,1,1,1,1,1,1,1,1,1,
1,1,1,1,1,1,1,1,1,1,1,1,1,1,1,1,1,1,1,1,1,1,
1,1,1,1,1,1,1,1,1,1,1,1,1,1,1,1,1,1,1,1,1,1,
1,1,1,1,1,1,1,1,1,1,1,1,1,1,1,1,1,1,1,1,1,1,
1,1,1,1,1,1,1,1,1,1,1,1,1,1,1,1,1,1,1,1,1,1,
1,1,1,1,1,1,1,1,1,1,1,1,1,1,1,1,1,1,1,1,1,1,
1,1,1,1,1,1,1,1,1,1,1,1,1,1,1,1,1,1,1,1,1,1,
1,1,1,1,1,1,1,1,1,1,1,1,1,1,1,1,1,1,1,1,1,1,
1,1,1,1,1,1,1,1,1,1,1,1,1,1,1,1,1,1,1,1,1,1,
1,1,1,1,1,1,1,1,1,1,1,1,1,1,1,1,1,1,1,1,1,1,
1,1,1,1,1,1,1,1,1,1,1,1,1,1,1,1,1,1,1,1,1,1
</data>
 </layer>
 <layer id="2" name="collision" width="22" height="12">
  <data encoding="csv">
2,2,2,2,2,2,2,2,2,2,2,2,2,2,2,2,2,2,2,2,2,2,
2,0,0,0,0,0,0,0,2,0,0,0,0,0,0,2,0,0,0,0,0,2,
2,0,0,0,0,0,0,0,2,0,0,0,0,0,0,2,0,0,0,0,0,2,
2,0,0,0,0,0,0,0,2,0,0,0,0,0,0,2,0,0,0,0,0,2,
2,0,0,0,0,0,0,0,2,0,0,0,0,0,0,2,0,0,0,0,0,2,
2,0,0,0,0,0,0,0,0,0,0,0,0,0,0,2,0,0,0,0,0,2,
2,0,0,0,0,0,0,0,2,0,0,0,0,0,0,2,0,0,0,0,0,2,
2,0,0,0,0,0,0,0,2,0,0,0,0,0,0,2,0,0,0,0,0,2,
2,0,0,0,0,0,0,0,2,0,0,0,0,0,0,0,0,0,0,0,0,2,
2,0,0,0,0,0,0,0,2,0,0,0,0,0,0,2,0,0,0,0,0,2,
2,0,0,0,0,0,0,0,2,0,0,0,0,0,0,2,0,0,0,0,0,2,
2,2,2,2,2,2,2,2,2,2,2,2,2,2,2,2,2,2,2,2,2,2
</data>
 </layer>
 <objectgroup id="3" name="entities">
  <object id="1" name="player" x="32" y="32" width="16" height="16"/>
  <object id="2" name="hinge" x="128" y="80" width="16" height="16">
   <properties>
    <property name="clan" type="int" value="0"/>
    <property name="family" type="int" value="0"/>
    <property name="role" value="caller"/>
    <property name="is_blocker" type="bool" value="true"/>
    <property name="flee_route" value="flee_hinge"/>
   </properties>
  </object>
  <object id="3" name="latch" x="48" y="128" width="16" height="16">
   <properties>
    <property name="clan" type="int" value="0"/>
    <property name="family" type="int" value="0"/>
    <property name="role" value="responder"/>
    <property name="is_blocker" type="bool" value="false"/>
    <property name="flee_route" value="flee_latch"/>
   </properties>
  </object>
  <object id="4" name="sill" x="240" y="128" width="16" height="16">
   <properties>
    <property name="clan" type="int" value="2"/>
    <property name="family" type="int" value="0"/>
    <property name="role" value="caller"/>
    <property name="is_blocker" type="bool" value="true"/>
    <property name="flee_route" value="flee_sill"/>
   </properties>
  </object>
  <object id="5" name="pane" x="176" y="48" width="16" height="16">
   <properties>
    <property name="clan" type="int" value="2"/>
    <property name="family" type="int" value="0"/>
    <property name="role" value="responder"/>
    <property name="is_blocker" type="bool" value="false"/>
    <property name="flee_route" value="flee_pane"/>
   </properties>
  </object>
  <object id="6" name="reed" x="288" y="48" width="16" height="16">
   <properties>
    <property name="clan" type="int" value="3"/>
    <property name="family" type="int" value="2"/>
    <property name="role" value="caller"/>
    <property name="is_blocker" type="bool" value="false"/>
    <property name="flee_route" value="flee_reed"/>
   </properties>
  </object>
  <object id="7" name="rush" x="304" y="144" width="16" height="16">
   <properties>
    <property name="clan" type="int" value="3"/>
    <property name="family" type="int" value="2"/>
    <property name="role" value="responder"/>
    <property name="is_blocker" type="bool" value="false"/>
    <property name="flee_route" value="flee_rush"/>
   </properties>
  </object>
 </objectgroup>
 <objectgroup id="4" name="zones">
  <object id="8" name="flee_hinge" x="128" y="80">
   <polyline points="0,0 -16,0 -32,0"/>
  </object>
  <object id="9" name="flee_latch" x="48" y="128">
   <polyline points="0,0 16,0 32,0"/>
  </object>
  <object id="10" name="flee_sill" x="240" y="128">
   <polyline points="0,0 -16,0 -32,0"/>
  </object>
  <object id="11" name="flee_pane" x="176" y="48">
   <polyline points="0,0 16,0 32,0"/>
  </object>
  <object id="12" name="flee_reed" x="288" y="48">
   <polyline points="0,0 0,16 0,32"/>
  </object>
  <object id="13" name="flee_rush" x="304" y="144">
   <polyline points="0,0 -16,0 -32,0"/>
  </object>
 </objectgroup>
</map>
